src/topics/icons/reactjs.svg

<svg height="230" preserveAspectRatio="xMidYMid" viewBox="0 0 256 230" width="256" xmlns="http://www.w3.org/2000/svg"><path d="m.75412411 114.750341c0 19.214341 18.76247909 37.151709 48.34307589 47.262184-5.9069691 29.737705-1.0586328 53.706093 15.1353395 63.045579 16.6457275 9.599101 41.4437565 2.954516 64.9804525-17.619288 22.942873 19.743258 46.130737 27.513217 62.30962 18.147189 16.629451-9.626968 21.687771-35.221002 15.61744-65.886911 30.809758-10.18643 48.043885-25.48149 48.043885-44.948753 0-18.7688745-18.797291-35.006479-47.978913-45.0523488 6.534946-31.9332805.997696-55.3200558-15.866608-65.04523715-16.258957-9.37567702-39.715997-1.20381864-62.99629 19.05650405-24.219189-21.50473146-47.4447786-28.07039585-64.292734-18.31686956-16.2431543 9.40234626-20.8782824 33.80630666-14.9521921 64.09455096-28.5817704 9.9652619-48.34307579 26.5695854-48.34307579 45.2634005z" fill="#fff"/><path d="m201.024553 79.6741178c-2.344019-.8068122-4.772902-1.570187-7.273779-2.292135.411049-1.6775743.788311-3.3334298 1.123746-4.9611313 5.506112-26.7273653 1.906024-48.259117-10.387205-55.3482859-11.787664-6.7975742-31.065489.2899859-50.535164 17.2338476-1.872239 1.6293103-3.749707 3.3543441-5.626369 5.1622309-1.250439-1.1961414-2.498866-2.3520628-3.744075-3.4577093-20.404789-18.11748-40.8574399-25.7524336-53.1386025-18.6427525-11.7764023 6.817282-15.2638743 27.0591798-10.3075695 52.3889018.4786174 2.4465797 1.0380769 4.9450432 1.6707368 7.4853354-2.89463.8216936-5.6891123 1.6976842-8.3629348 2.6295805-23.9224258 8.3404116-39.2003771 21.411896-39.2003771 34.970444 0 14.003382 16.4008924 28.048994 41.3179576 36.565568 1.9663535.672076 4.0067117 1.307551 6.1094109 1.91085-.6825326 2.747426-1.2761791 5.439749-1.7745044 8.06571-4.7258444 24.890118-1.0352616 44.6538 10.7097691 51.428047 12.1315444 6.995859 32.4916889-.195067 52.3173099-17.52504 1.56697-1.369892 3.13957-2.822636 4.714985-4.345363 2.041968 1.966353 4.080716 3.82733 6.108607 5.572876 19.203419 16.525172 38.169942 23.198065 49.904113 16.404915 12.119478-7.01597 16.058219-28.246876 10.944653-54.077738-.390536-1.972789-.845021-3.988211-1.355412-6.039428 1.429819-.422713 2.833496-.859099 4.202181-1.31278 25.903661-8.582535 42.757429-22.457213 42.757429-36.647617 0-13.607616-15.770646-26.7671824-40.174906-35.1683262z" fill="#53c1de"/><path d="m195.406228 142.327554c-1.235557.409036-2.50329.804399-3.795155 1.187695-2.859638-9.053109-6.719145-18.679755-11.442174-28.625747 4.507048-9.709097 8.217338-19.2126693 10.996939-28.2070574 2.311441.6688578 4.55491 1.3743159 6.716733 2.1187872 20.909548 7.1981649 33.6641 17.8407662 33.6641 26.0412122 0 8.73497-13.774529 20.074181-36.140443 27.48511zm-9.280352 18.389366c2.261165 11.422065 2.584131 21.74894 1.08634 29.821889-1.345759 7.254071-4.05216 12.09052-7.39846 14.027513-7.120943 4.121741-22.34902-1.235959-38.772034-15.368446-1.882696-1.62006-3.779067-3.34992-5.681471-5.180733 6.366819-6.96328 12.730018-15.058349 18.940381-24.048716 10.923336-.9693 21.243375-2.553967 30.602155-4.717398.460921 1.859368.87036 3.682941 1.223089 5.465891zm-93.8492381 43.137107c-6.9572475 2.457037-12.4983504 2.527422-15.8478681.596059-7.1273778-4.110881-10.0903817-19.979261-6.0486787-41.265269.4629317-2.437732 1.0139451-4.941825 1.6490181-7.501423 9.2562199 2.046793 19.5006441 3.519647 30.4501238 4.407302 6.252192 8.797311 12.799196 16.883532 19.396877 23.963852-1.441483 1.39161-2.877336 2.716456-4.305144 3.964883-8.766743 7.663108-17.551987 13.100041-25.2943281 15.834596zm-32.5938476-61.579966c-11.0178539-3.765794-20.1168138-8.66016-26.353722-14.000967-5.6042481-4.799447-8.4337219-9.564305-8.4337219-13.43065 0-8.227795 12.2666835-18.7223875 32.7253669-25.8553961 2.4823755-.8655334 5.0809866-1.681194 7.7777345-2.4473841 2.8274626 9.1974988 6.5365467 18.8136872 11.0126253 28.5376652-4.5339953 9.868367-8.2957675 19.637795-11.150982 28.943082-1.9225137-.552622-3.7850997-1.134202-5.5773008-1.74635zm10.9257502-74.3707146c-4.2464227-21.7018821-1.4261995-38.0730117 5.6706111-42.1810777 7.5593402-4.3763331 24.2751544 1.8633903 41.8931034 17.506941 1.126158.9998681 2.256741 2.0463912 3.390542 3.1291124-6.565103 7.0493511-13.052179 15.0748405-19.248867 23.820267-10.6269167.9849867-20.7993472 2.5672397-30.1520949 4.6860267-.5880158-2.3653354-1.1088642-4.6892442-1.5532946-6.9612694zm97.4674245 24.0672176c-2.235826-3.8619199-4.53118-7.6325405-6.871176-11.3001979 7.209427.9113841 14.1168 2.1212003 20.603475 3.6016968-1.947451 6.2413322-4.374724 12.7670196-7.23195 19.4568041-2.049608-3.8912802-4.217464-7.8147366-6.500349-11.758303zm-39.746966-38.7137156c4.452349 4.823579 8.911133 10.2090306 13.296717 16.0521853-4.419369-.2087415-8.893437-.3173354-13.404506-.3173354-4.468437 0-8.909524.1061807-13.301543.3113024 4.390008-5.7888578 8.887403-11.1670699 13.409332-16.0461523zm-40.0015583 38.7804807c-2.233414 3.8727793-4.3610495 7.7749192-6.3784823 11.6842989-2.8109726-6.6664575-5.2157235-13.2219077-7.180066-19.5517239 6.4468562-1.4426897 13.3216528-2.6223408 20.4852286-3.5164304-2.3729772 3.7014422-4.6872334 7.4998146-6.9266803 11.383051zm7.1330086 57.6826519c-7.4012757-.825716-14.3794375-1.944634-20.824685-3.347507 1.9957141-6.442834 4.4535554-13.138249 7.3240534-19.948292 2.0226615 3.906564 4.1587432 7.810313 6.405832 11.691539h.0004021c2.2889176 3.954023 4.660286 7.827204 7.0943975 11.60426zm33.1356107 27.388581c-4.57502-4.936195-9.138376-10.396455-13.595149-16.269775 4.32646.169728 8.737382.256604 13.220299.256604 4.605587 0 9.158485-.103768 13.639793-.303259-4.400064 5.979099-8.842759 11.447805-13.264943 16.31643zm46.072358-51.031478c3.020116 6.883645 5.566039 13.544069 7.587494 19.877103-6.551428 1.494573-13.624911 2.698357-21.077668 3.592849 2.345628-3.717129 4.66109-7.552504 6.936332-11.497679 2.301789-3.991427 4.487341-7.988888 6.553842-11.972273zm-14.915168 7.149901c-3.532116 6.124292-7.158347 11.970664-10.839679 17.489245-6.705069.479421-13.632151.726372-20.692361.726372-7.031654 0-13.87146-.218395-20.457879-.645933-3.829744-5.590975-7.534806-11.454642-11.0443993-17.516996h.0008044c-3.5003426-6.045863-6.7219607-12.142806-9.6411249-18.205561 2.9183597-6.076833 6.1315317-12.180613 9.6117643-18.2156171l-.0008044.0012066c3.4894829-6.0510919 7.1619669-11.8862027 10.9563169-17.442187 6.71995-.5079779 13.610835-.7730274 20.57492-.7730274h.000402c6.995456 0 13.895189.2670604 20.613127.7794627 3.736434 5.5153621 7.383982 11.3315694 10.88714 17.3834658 3.542976 6.1198684 6.797574 12.1830254 9.74087 18.1295464-2.934447 6.048678-6.181806 12.172971-9.709097 18.290023zm19.912497-107.7918868c7.56658 4.3634627 10.509071 21.9613009 5.755073 45.0374988-.303259 1.4724525-.644725 2.9722545-1.015554 4.4921665-9.374467-2.163029-19.554137-3.7726315-30.212021-4.7724996-6.208755-8.8415522-12.642741-16.8795098-19.100859-23.8383661 1.736296-1.6703345 3.470178-3.2630447 5.19682-4.7660643 16.681628-14.517392 32.272893-20.2491375 39.376541-16.1527353z" fill="#fff"/><path d="m128.22121 94.6653008c11.14334 0 20.177143 9.0334012 20.177143 20.1771432 0 11.14334-9.033803 20.177145-20.177143 20.177145s-20.177144-9.033805-20.177144-20.177145c0-11.143742 9.033804-20.1771432 20.177144-20.1771432" fill="#53c1de"/></svg>

<?xml version="1.0" encoding="UTF-8" standalone="no" ?>
<svg width="256px" height="230px" viewBox="0 0 256 230" version="1.1" xmlns="http://www.w3.org/2000/svg" xmlns:xlink="http://www.w3.org/1999/xlink" preserveAspectRatio="xMidYMid">
    <path d="M0.754124112,114.750341 C0.754124112,133.964682 19.5166032,151.90205 49.0972,162.012525 C43.1902309,191.75023 48.0385672,215.718618 64.2325395,225.058104 C80.878267,234.657205 105.676296,228.01262 129.212992,207.438816 C152.155865,227.182074 175.343729,234.952033 191.522612,225.586005 C208.152063,215.959037 213.210383,190.365003 207.140052,159.699094 C237.94981,149.512664 255.183937,134.217604 255.183937,114.750341 C255.183937,95.9814665 236.386646,79.743862 207.205024,69.6979922 C213.73997,37.7647117 208.20272,14.3779364 191.338416,4.65275505 C175.079459,-4.72292197 151.622419,3.44893641 128.342126,23.7092591 C104.122937,2.20452764 80.8973474,-4.36113675 64.049392,5.39238954 C47.8062377,14.7947358 43.1711096,39.1986962 49.0971999,69.4869405 C20.5154295,79.4522024 0.754124112,96.0565259 0.754124112,114.750341 Z" fill="#FFFFFF"></path>
    <path d="M201.024553,79.6741178 C198.680534,78.8673056 196.251651,78.1039308 193.750774,77.3819828 C194.161823,75.7044085 194.539085,74.048553 194.87452,72.4208515 C200.380632,45.6934862 196.780544,24.1617345 184.487315,17.0725656 C172.699651,10.2749914 153.421826,17.3625515 133.952151,34.3064132 C132.079912,35.9357235 130.202444,37.6607573 128.325782,39.4686441 C127.075343,38.2725027 125.826916,37.1165813 124.581707,36.0109348 C104.176918,17.8934548 83.7242671,10.2585012 71.4431045,17.3681823 C59.6667022,24.1854643 56.1792302,44.4273621 61.135535,69.7570841 C61.6141524,72.2036638 62.1736119,74.7021273 62.8062718,77.2424195 C59.9116418,78.0641131 57.1171595,78.9401037 54.443337,79.872 C30.5209112,88.2124116 15.2429599,101.283896 15.2429599,114.842444 C15.2429599,128.845826 31.6438523,142.891438 56.5609175,151.408012 C58.527271,152.080088 60.5676292,152.715563 62.6703284,153.318862 C61.9877958,156.066288 61.3941493,158.758611 60.895824,161.384572 C56.1699796,186.27469 59.8605624,206.038372 71.6055931,212.812619 C83.7371375,219.808478 104.097282,212.617552 123.922903,195.287579 C125.489873,193.917687 127.062473,192.464943 128.637888,190.942216 C130.679856,192.908569 132.718604,194.769546 134.746495,196.515092 C153.949914,213.040264 172.916437,219.713157 184.650608,212.920007 C196.770086,205.904037 200.708827,184.673131 195.595261,158.842269 C195.204725,156.86948 194.75024,154.854058 194.239849,152.802841 C195.669668,152.380128 197.073345,151.943742 198.44203,151.490061 C224.345691,142.907526 241.199459,129.032848 241.199459,114.842444 C241.199459,101.234828 225.428813,88.0752616 201.024553,79.6741178 L201.024553,79.6741178 L201.024553,79.6741178 Z" fill="#53C1DE"></path>
    <path d="M195.406228,142.327554 C194.170671,142.73659 192.902938,143.131953 191.611073,143.515249 C188.751435,134.46214 184.891928,124.835494 180.168899,114.889502 C184.675947,105.180405 188.386237,95.6768327 191.165838,86.6824446 C193.477279,87.3513024 195.720748,88.0567605 197.882571,88.8012318 C218.792119,95.9993967 231.546671,106.641998 231.546671,114.842444 C231.546671,123.577414 217.772142,134.916625 195.406228,142.327554 L195.406228,142.327554 L195.406228,142.327554 Z M186.125876,160.71692 C188.387041,172.138985 188.710007,182.46586 187.212216,190.538809 C185.866457,197.79288 183.160056,202.629329 179.813756,204.566322 C172.692813,208.688063 157.464736,203.330363 141.041722,189.197876 C139.159026,187.577816 137.262655,185.847956 135.360251,184.017143 C141.72707,177.053863 148.090269,168.958794 154.300632,159.968427 C165.223968,158.999127 175.544007,157.41446 184.902787,155.251029 C185.363708,157.110397 185.773147,158.93397 186.125876,160.71692 L186.125876,160.71692 L186.125876,160.71692 Z M92.2766379,203.854027 C85.3193904,206.311064 79.7782875,206.381449 76.4287698,204.450086 C69.301392,200.339205 66.3383881,184.470825 70.3800911,163.184817 C70.8430228,160.747085 71.3940362,158.242992 72.0291092,155.683394 C81.2853291,157.730187 91.5297533,159.203041 102.479233,160.090696 C108.731425,168.888007 115.278429,176.974228 121.87611,184.054548 C120.434627,185.446158 118.998774,186.771004 117.570966,188.019431 C108.804223,195.682539 100.018979,201.119472 92.2766379,203.854027 L92.2766379,203.854027 L92.2766379,203.854027 Z M59.6827903,142.274061 C48.6649364,138.508267 39.5659765,133.613901 33.3290683,128.273094 C27.7248202,123.473647 24.8953464,118.708789 24.8953464,114.842444 C24.8953464,106.614649 37.1620299,96.1200565 57.6207133,88.9870479 C60.1030888,88.1215145 62.7016999,87.3058539 65.3984478,86.5396638 C68.2259104,95.7371626 71.9349945,105.353351 76.4110731,115.077329 C71.8770778,124.945696 68.1153056,134.715124 65.2600911,144.020411 C63.3375774,143.467789 61.4749914,142.886209 59.6827903,142.274061 L59.6827903,142.274061 L59.6827903,142.274061 Z M70.6085405,67.9033464 C66.3621178,46.2014643 69.182341,29.8303347 76.2791516,25.7222687 C83.8384918,21.3459356 100.554306,27.585659 118.172255,43.2292097 C119.298413,44.2290778 120.428996,45.2756009 121.562797,46.3583221 C114.997694,53.4076732 108.510618,61.4331626 102.31393,70.1785891 C91.6870133,71.1635758 81.5145828,72.7458288 72.1618351,74.8646158 C71.5738193,72.4992804 71.0529709,70.1753716 70.6085405,67.9033464 L70.6085405,67.9033464 L70.6085405,67.9033464 Z M168.075965,91.970564 C165.840139,88.1086441 163.544785,84.3380235 161.204789,80.6703661 C168.414216,81.5817502 175.321589,82.7915664 181.808264,84.2720629 C179.860813,90.5133951 177.43354,97.0390825 174.576314,103.728867 C172.526706,99.8375868 170.35885,95.9141304 168.075965,91.970564 L168.075965,91.970564 L168.075965,91.970564 Z M128.328999,53.2568484 C132.781348,58.0804274 137.240132,63.465879 141.625716,69.3090337 C137.206347,69.1002922 132.732279,68.9916983 128.22121,68.9916983 C123.752773,68.9916983 119.311686,69.097879 114.919667,69.3030007 C119.309675,63.5141429 123.80707,58.1359308 128.328999,53.2568484 L128.328999,53.2568484 L128.328999,53.2568484 Z M88.3274407,92.0373291 C86.0940267,95.9101084 83.9663912,99.8122483 81.9489584,103.721628 C79.1379858,97.0551705 76.7332349,90.4997203 74.7688924,84.1699041 C81.2157486,82.7272144 88.0905452,81.5475633 95.254121,80.6534737 C92.8811438,84.3549159 90.5668876,88.1532883 88.3274407,92.0365247 L88.3274407,92.0373291 L88.3274407,92.0373291 Z M95.4604493,149.719981 C88.0591736,148.894265 81.0810118,147.775347 74.6357643,146.372474 C76.6314784,139.92964 79.0893197,133.234225 81.9598177,126.424182 C83.9824792,130.330746 86.1185609,134.234495 88.3656497,138.115721 L88.3660518,138.115721 C90.6549694,142.069744 93.0263378,145.942925 95.4604493,149.719981 L95.4604493,149.719981 L95.4604493,149.719981 Z M128.59606,177.108562 C124.02104,172.172367 119.457684,166.712107 115.000911,160.838787 C119.327371,161.008515 123.738293,161.095391 128.22121,161.095391 C132.826797,161.095391 137.379695,160.991623 141.861003,160.792132 C137.460939,166.771231 133.018244,172.239937 128.59606,177.108562 L128.59606,177.108562 L128.59606,177.108562 Z M174.668418,126.077084 C177.688534,132.960729 180.234457,139.621153 182.255912,145.954187 C175.704484,147.44876 168.631001,148.652544 161.178244,149.547036 C163.523872,145.829907 165.839334,141.994532 168.114576,138.049357 C170.416365,134.05793 172.601917,130.060469 174.668418,126.077084 L174.668418,126.077084 L174.668418,126.077084 Z M159.75325,133.226985 C156.221134,139.351277 152.594903,145.197649 148.913571,150.71623 C142.208502,151.195651 135.28142,151.442602 128.22121,151.442602 C121.189556,151.442602 114.34975,151.224207 107.763331,150.796669 C103.933587,145.205694 100.228525,139.342027 96.7189317,133.279673 L96.7197361,133.279673 C93.2193935,127.23381 89.9977754,121.136867 87.0786112,115.074112 C89.9969709,108.997279 93.2101429,102.893499 96.6903755,96.8584949 L96.6895711,96.8597015 C100.179054,90.8086096 103.851538,84.9734988 107.645888,79.4175145 C114.365838,78.9095366 121.256723,78.6444871 128.220808,78.6444871 L128.22121,78.6444871 C135.216666,78.6444871 142.116399,78.9115475 148.834337,79.4239498 C152.570771,84.9393119 156.218319,90.7555192 159.721477,96.8074156 C163.264453,102.927284 166.519051,108.990441 169.462347,114.936962 C166.5279,120.98564 163.280541,127.109933 159.75325,133.226985 L159.75325,133.226985 L159.75325,133.226985 Z M179.665747,25.4350982 C187.232327,29.7985609 190.174818,47.3963991 185.42082,70.472597 C185.117561,71.9450495 184.776095,73.4448515 184.405266,74.9647635 C175.030799,72.8017345 164.851129,71.192132 154.193245,70.1922639 C147.98449,61.3507117 141.550504,53.3127541 135.092386,46.3538978 C136.828682,44.6835633 138.562564,43.0908531 140.289206,41.5878335 C156.970834,27.0704415 172.562099,21.338696 179.665747,25.4350982 L179.665747,25.4350982 L179.665747,25.4350982 Z" fill="#FFFFFF"></path>
    <path d="M128.22121,94.6653008 C139.36455,94.6653008 148.398353,103.698702 148.398353,114.842444 C148.398353,125.985784 139.36455,135.019589 128.22121,135.019589 C117.07787,135.019589 108.044066,125.985784 108.044066,114.842444 C108.044066,103.698702 117.07787,94.6653008 128.22121,94.6653008" fill="#53C1DE"></path>
</svg>
